Catalina-dark/actions/22/draw-polygon-star.svg

<svg xmlns="http://www.w3.org/2000/svg" viewBox="0 0 22 22">
  <defs id="defs3051">
    <style type="text/css" id="current-color-scheme">
      .ColorScheme-Text {
        color:#f2f2f2
      }
      </style>
  </defs>
 <path 
     style="fill:currentColor;fill-opacity:1;stroke:none"      
        d="M 9 3 L 2 10.15625 L 5.875 17 L 9 17 L 8.6875 19 L 13 16.59375 L 17.3125 19 L 16.5 13.9375 L 20 10.34375 L 15.15625 9.59375 L 13 5 L 12.34375 6.40625 L 9 3 z M 9 4.25 L 11.9375 7.25 L 10.84375 9.59375 L 6 10.34375 L 9.5 13.9375 L 9.15625 16.125 L 6.375 16.125 L 3.0625 10.3125 L 9 4.25 z "
	 class="ColorScheme-Text"
     />
</svg>

<svg viewBox="0 0 22 22" xmlns="http://www.w3.org/2000/svg">
<defs>
<style id="current-color-scheme" type="text/css">.ColorScheme-Text {
        color:#dedede
      }</style>
</defs>
<path class="ColorScheme-Text" d="m9 3-7 7.1562 3.875 6.8438h3.125l-0.3125 2 4.3125-2.4062 4.3125 2.4062-0.8125-5.0625 3.5-3.5938-4.8438-0.75-2.1562-4.5938-0.65625 1.4062-3.3438-3.4062zm0 1.25 2.9375 3-1.0938 2.3438-4.8438 0.75 3.5 3.5938-0.34375 2.1875h-2.7812l-3.3125-5.8125 5.9375-6.0625z" fill="currentColor"/>
</svg>
